!!!!SEGMENT: pl-wnifc--6855-n--001_lubomirski-kazimierz--zawsze-i-wszedzie.krn
!!!cenid: 18xx:4066
!!!COM: Lubomirski, Kazimierz
!!!COM-rismID: pe30107516
!!!CDT: 1813-1871
!!!CNT:
!!!OTL: Zawsze i wszędzie
!!!PDT:
!!!AGN:
!!!SMS-siglum: PL-Wnifc
!!!SMS-shelfmark: 6855/n
!!!SMS-shelfwork: 001 W
!!!SMS-variant:
!!!SMS-altvar:
!!!NIFC-rismSourceID: 1001134555
!!!NIFC-rismChildID: 1001134555
!!!NIFC-islandoraID: nifc:214718
!!!URL-pdf-islandora: https://repozytorium.nifc.pl/islandora/object/nifc%3A214718/datastream/PDF/view
!!!URL-scan: https://polish.musicsources.pl/pl/lokalizacje/galeria/klocki-introligatorskie/690-without-title/7 @EN{Scan on Polish Music Sources Website} @PL{Skany w portalu Dziedzictwo Muzyki Polskiej w otwartym dostępie}
!!!ONB-nifc: UWAGA: skany 11-13
!!!OMD: Andante con moto.
!!!AIN: 1 piano 1 vox
!!!key: f
**kern	**kern	**dynam	**kern	**text	**text	**dynam
*part2	*part2	*part2	*part1	*part1	*part1	*part1
*staff3	*staff2	*	*staff1	*staff1	*staff1	*
*>[A,A1,A,A2,B]	*>[A,A1,A,A2,B]	*	*>[A,A1,A,A2,B]	*	*	*
*>A	*>A	*	*>A	*	*	*
*I"Fortepiano.	*I"Fortepiano.	*	*I"Głos.	*	*	*
*	*I'	*	*I'	*	*	*
*Ipiano	*Ipiano	*	*Ivox	*	*	*
*ICklav	*ICklav	*	*ICvox	*	*	*
*IGacmp	*IGacmp	*	*IGsolo	*	*	*
*clefF4	*clefG2	*	*clefG2	*	*	*
*k[b-e-a-d-]	*k[b-e-a-d-]	*	*k[b-e-a-d-]	*	*	*
*f:	*f:	*	*f:	*	*	*
*M4/4	*M4/4	*	*M4/4	*	*	*
*met(c)	*met(c)	*	*met(c)	*	*	*
=1	=1	=1	=1	=1	=1	=1
4F 4FF/	8r	p	1r	.	.	.
.	(8cL 8A-/	.	.	.	.	.
4r	8f 8c/	.	.	.	.	.
.	8a-J 8f/)	.	.	.	.	.
4A- 4AA-\	8r	.	.	.	.	.
.	(8fL 8c/	.	.	.	.	.
4r	8a- 8f/	.	.	.	.	.
.	8ccJ 8a-/)	.	.	.	.	.
=2	=2	=2	=2	=2	=2	=2
4G 4GG/	8r	.	1r	.	.	.
!	!	!LO:HP:a	!	!	!	!
.	(8fL 8dn/	<	.	.	.	.
4r	8g 8f/	.	.	.	.	.
.	8bnJ 8g/)	.	.	.	.	.
4En 4EEn/	8r	.	.	.	.	.
.	(8cL 8B-X/	.	.	.	.	.
4r	8g 8c/	.	.	.	.	.
.	8b-XJ 8g/)	[[	.	.	.	.
=3	=3	=3	=3	=3	=3	=3
4F 4FF/	8r	.	1r	.	.	.
.	(8cL 8A-/	.	.	.	.	.
4r	8f 8c/	.	.	.	.	.
.	8a-J 8f/)	.	.	.	.	.
4BB- 4BBB-/	8r	.	.	.	.	.
.	8dd-L 8g 8f/	.	.	.	.	.
4r	8g 8f 8d-/	.	.	.	.	.
.	8dd-J 8g 8f/	.	.	.	.	.
!!LO:LB:g=original
=4	=4	=4	=4	=4	=4	=4
*	*^	*	*	*	*	*
2C 2CC/	8r	4ryy	.	1r	.	.	.
.	8g 8f 8B-/	.	.	.	.	.	.
.	8gL 8en/	4B-\	>	.	.	.	.
.	16dn/L	.	.	.	.	.	.
.	16e/JJ	.	.	.	.	.	.
8r	2f 2c 2A-/	2ryy	]	.	.	.	.
8FF/L	.	.	.	.	.	.	.
8AA-/	.	.	.	.	.	.	.
8C/J	.	.	.	.	.	.	.
*	*v	*v	*	*	*	*	*
=5	=5	=5	=5	=5	=5	=5
2F 2FF/	8r	p	4f/	O	O	.
.	8cL 8A-/	.	.	.	.	.
.	8c 8A-/	.	8f/	nie	nie	.
.	8cJ 8A-/	.	8f/	mów	mów	.
2F 2FF/	8r	.	4.f/	o	o	.
.	8cL 8A-/	.	.	.	.	.
.	8c 8A-/	.	.	.	.	.
.	8cJ 8A-/	.	(8f/	mnie	mnie	.
=6	=6	=6	=6	=6	=6	=6
2F 2FF/	8r	.	8ff\)	gdy	gdy	.
.	8d-L 8A-/	.	8ff\	mnie	mnie	.
.	8d- 8A-/	.	8.ee-\	już	już	.
.	8d-J 8A-/	.	.	.	.	.
.	.	.	16dd-\	nie	nie	>
2En 2EEn/	8r	.	4dd-\	bę-	bę-	.
.	8cL 8G/	.	.	.	.	.
.	8c 8G/	.	8cc\	-dzie	-dzie	]
.	8cJ 8G/	.	8r	.	.	.
!!LO:PB:g=original
=7	=7	=7	=7	=7	=7	=7
2D- 2DD-\	8r	.	4cc\	że	że	.
.	8B-L 8F</	.	.	.	.	.
.	8B- 8F</	.	8b-\	cie-	to-	.
.	8B-J 8F</	.	8b-\	-bie	-bię	.
2C 2CC\	8r	.	4.b-\	tyl-	tyl-	.
.	8A-L 8F</	.	.	.	.	.
.	8A- 8F</	.	.	.	.	.
.	8A-J 8F</	.	8a-/	-ko	-ko	.
=8	=8	=8	=8	=8	=8	=8
2BBn 2BBBn\	8r	.	8a-/	go-	los	.
.	8G<L 8D-</	.	8a-/	-ry-	ży-	.
.	8G< 8F< 8D-</	.	8.g/	-czą	-cia	.
.	8G<J 8F< 8D-</	.	.	.	.	.
.	.	.	16f/	zra-	po-	.
2C 2CC\	8r	.	4g/	-ni-	-psu-	.
.	8G<L 8En</	.	.	.	.	.
.	8A-< 8F</	.	8c/	-łem,	-łem,	.
.	8B-X<J 8G</	.	8r	.	.	.
=9	=9	=9	=9	=9	=9	=9
2F 2FF/	8r	.	4f/	bo	bo	.
.	8cL 8A-/	.	.	.	.	.
.	8c 8A-/	.	8.a-/	ia	włas-	.
.	8cJ 8A-/	.	.	.	.	.
.	.	.	16b-\	go-	-ną	.
2E- 2EE-/	8r	.	4.cc\	-ry-	do-	.
.	8cL 8G/	.	.	.	.	.
.	8c 8G/	.	.	.	.	.
.	8cJ 8G/	.	8cc\	-czy	-lę	.
!!LO:LB:g=original
=10	=10	=10	=10	=10	=10	=10
2Dn 2DDn/	8r	<	8f#X/	kie-	sam	.
.	8fL 8Bn 8G/	.	8g/	-lich	tak-	.
.	8f 8B 8G/	.	8bn\	tak-	-że	.
.	8fJ 8B 8G/	.	8ddn\	-że	za-	.
2C 2CC/	8r	.	4ff\	pi-	-tru-	.
.	8e-L 8c 8G/	[	.	.	.	.
.	8e- 8c 8G/	.	8ee-\	-łem,	-łem	.
.	8e-J 8c 8G/	.	8r	.	.	.
=11	=11	=11	=11	=11	=11	=11
2FF/	8r	.	4ee-\	za-	za-	.
.	8dnL 8c 8A-/	>	.	.	.	.
.	8e- 8c 8A-/	.	8.ddn\	-wsze	-wsze	.
.	8fJ 8c 8A-/	.	.	.	.	.
.	.	.	16dd\	i	i	.
2GG/	8r	.	4.dd\	wszę-	wszę-	.
.	8e-L 8c 8G/	.	.	.	.	.
.	8f 8d 8G/	.	.	.	.	.
.	8gJ 8e-/	]	8cc\	-dzie	-dzie	.
!!LO:LB:g=original
=12	=12	=12	=12	=12	=12	=12
4GG\	4e- 4c 4G/	.	4g/	za-	za-	.
.	.	.	8qb-/	.	.	.
4GG 4GGG\	4d- 4Bn 4G 4F</	.	8.a-/	-wsze	-wsze	.
.	.	.	16g/	i	i	.
2C 2CC\	8r	.	4g/	wszę-	wszę-	.
.	(8G<L 8En</	.	.	.	.	.
.	8c< 8G</	.	8c/	-dzie	-dzie	.
.	8enJ 8c/)	.	8r	.	.	.
=13	=13	=13	=13	=13	=13	=13
2C 2CC/	8r	.	1r	.	.	.
!	!	!LO:HP:a	!	!	!	!
.	(8B-XL 8G/	<	.	.	.	.
.	8en 8B-/	.	.	.	.	.
.	8gJ 8e/)	[	.	.	.	.
2C 2CC/	8r	.	.	.	.	.
.	(8cL 8A-/	.	.	.	.	.
.	8f 8c/	.	.	.	.	.
.	8a-J 8f/)	.	.	.	.	.
!!LO:LB:g=original
=14	=14	=14	=14	=14	=14	=14
!LO:TX:t=1ma	!	!	!	!	!	!
*>A1	*>A1	*	*>A1	*	*	*
!	!	!	!LO:N:vis=1	!	!	!
2C 2CC/	8r	.	1..r	.	.	.
.	8a-L 8f 8dn 8Bn/	.	.	.	.	.
.	8f 8d 8B 8A-/	.	.	.	.	.
.	8dJ 8B 8A- 8F/	.	.	.	.	.
*ped	*	*	*	*	*	*
8C 8GG 8EEn 8CC\	8c< 8G< 8En<;/	.	.	.	.	.
*cue	*	*	*	*	*	*
32CC/LLL	4ryy	.	.	.	.	.
32GG/	.	.	.	.	.	.
32C/	.	.	.	.	.	.
32En/JJJ	.	.	.	.	.	.
32G\LLL	.	.	.	.	.	.
32c\	.	.	.	.	.	.
32en>\	.	.	.	.	.	.
32g>\JJJ	.	.	.	.	.	.
*	*cue	*	*	*	*	*
!	!LO:TUP:a	!	!	!	!	!
8ryy	48cc\LLL	.	.	.	.	.
!	!LO:SIC:v:s=48ee\	!	!	!	!	!
.	48ee-\	.	.	.	.	.
.	48gg\JJJ	.	.	.	.	.
!	!LO:N:vis=8	!	!	!	!	!
.	16ccc;\	.	.	.	.	.
*	*Xtuplet	*	*	*	*	*
4ryy	(52ddd-X\LLL	.	.	.	.	.
.	52ccc\	.	.	.	.	.
.	52bb-\	.	.	.	.	.
.	52aa-\	.	.	.	.	.
.	52gg\	.	.	.	.	.
.	52ff\	.	.	.	.	.
.	52een\	.	.	.	.	.
.	52dd-X\	.	.	.	.	.
.	52cc\	.	.	.	.	.
.	52b-\	.	.	.	.	.
.	52a-\	.	.	.	.	.
.	52g\	.	.	.	.	.
.	52f\JJJ)	.	.	.	.	.
*Xcue	*tuplet	*	*	*	*	*
!LO:N:vis=4	!LO:TUP:b:problem:klamra łukowa	!LO:DY:b=2	!	!	!	!
2B- 2G 2E 2C;\	24e-X/LL	p	.	.	.	.
.	24g/	.	.	.	.	.
.	24b-/JJ	.	.	.	.	.
!	!LO:N:vis=16	!	!	!	!	!
.	8dd-\	.	.	.	.	.
*	*Xcue	*	*	*	*	*
.	4cc;\	.	.	.	.	.
!!LO:PB:g=original
=15:|!	=15:|!	=15:|!	=15:|!	=15:|!	=15:|!	=15:|!
!LO:TX:t=2da	!	!	!	!	!	!
*>A2	*>A2	*	*>A2	*	*	*
!	!	!	!LO:N:vis=1	!	!	!
2C 2CC/	8r	.	0r	.	.	.
.	8a-L 8f 8dn 8Bn/	.	.	.	.	.
.	8f 8d 8B 8A-/	.	.	.	.	.
.	8dJ 8B 8A- 8F/	.	.	.	.	.
8C 8GG 8EEn 8CC;<\	8c< 8G< 8En<;/	.	.	.	.	.
*ped	*	*	*	*	*	*
*cue	*	*	*	*	*	*
32CC/LLL	4ryy	.	.	.	.	.
32GG/	.	.	.	.	.	.
32C/	.	.	.	.	.	.
32En/JJJ	.	.	.	.	.	.
32G\LLL	.	.	.	.	.	.
32c\	.	.	.	.	.	.
32en>\	.	.	.	.	.	.
32g>\JJJ	.	.	.	.	.	.
*	*cue	*	*	*	*	*
!	!LO:TUP:a	!	!	!	!	!
16ryy	48cc\LLL	.	.	.	.	.
!	!LO:SIC:v:s=48ee\	!	!	!	!	!
.	48ee-\	.	.	.	.	.
.	48gg\JJJ	.	.	.	.	.
!	!LO:N:vis=4	!	!	!	!	!
16ryy	16ccc;\	.	.	.	.	.
2ryy	(32ddd-X\LLL	.	.	.	.	.
.	32ccc\	.	.	.	.	.
.	32bb-\	.	.	.	.	.
.	32aa-\	.	.	.	.	.
.	32gg\	.	.	.	.	.
.	32ff\	.	.	.	.	.
.	32een\	.	.	.	.	.
.	32ff\	.	.	.	.	.
.	32gg\	.	.	.	.	.
.	32cc\	.	.	.	.	.
!	!LO:TR:acc=none	!	!	!	!	!
.	32dd-T\	.	.	.	.	.
.	32cc\	.	.	.	.	.
.	32b-\	.	.	.	.	.
.	32a-\	.	.	.	.	.
.	32g\	.	.	.	.	.
.	32f\JJJ)	.	.	.	.	.
*Xcue	*	*	*	*	*	*
!	!LO:TUP:a:problem:klamra łukowa	!	!	!	!	!
8B- 8G 8En 8C\	24en\LL	.	.	.	.	.
.	24g\	.	.	.	.	.
.	24b-\JJ	.	.	.	.	.
4ryy	16dd-\	.	.	.	.	.
!	!LO:TX:a:i:t=rall.	!	!	!	!	!
.	16cc\	.	.	.	.	.
!	!LO:TUP:a	!	!	!	!	!
.	24e\LL	.	.	.	.	.
.	24g\	.	.	.	.	.
.	24b-\JJ	.	.	.	.	.
*	*Xcue	*	*	*	*	*
8B- 8G 8E 8C;\	16ddn\	.	.	.	.	.
.	16cc;\	.	.	.	.	.
!!LO:LB:g=original
=16||	=16||	=16||	=16||	=16||	=16||	=16||
*>B	*>B	*	*>B	*	*	*
*k[b-]	*k[b-]	*	*k[b-]	*	*	*
!	!	!	!LO:TX:a:i:t=dolce	!	!	!
(8FF/L	4a 4c/	.	(>4a/	A-	.	.
8C/	.	.	.	.	.	.
8F/	8.fL 8.A/	.	8.f/	-le	.	.
8C/J)	.	.	.	.	.	.
.	16dJk 16B-/	.	16d/)	mów	.	.
(8FF/L	4.c 4.A/	.	4.c/	o	.	.
8C/	.	.	.	.	.	.
8F/	.	.	.	.	.	.
8C/J)	8c 8A/	.	8c/	mnie	.	.
=17	=17	=17	=17	=17	=17	=17
(8CC/L	8b-L 8d/	.	(8b-\	gdy	.	.
8C/	8b- 8d/	.	8b-\	mnie	.	.
8E/	8f#X 8A/	.	8f#X/	już	.	.
8C/J)	8gJ 8B-/	.	8g/)	nie	.	.
(8FF/L	4b- 4d/	.	4b-\	bę-	.	.
8C/	.	.	.	.	.	.
8F/	4a 4c/	.	8a/	-dzie	.	.
8C/J)	.	.	8r	.	.	.
=18	=18	=18	=18	=18	=18	=18
2F 2FF/	8r	<	4a/	że	.	.
.	8aL 8f/	.	.	.	.	.
.	8a 8e/	.	8.a/	Bóg	.	.
.	8aJ 8d#X/	.	.	.	.	.
.	.	[	16a/	jest	.	.
2E 2EE/	8r	>	4.a/	do-	.	.
.	8aL 8e 8c/	.	.	.	.	.
.	8a 8e 8c/	.	.	.	.	.
.	8aJ 8e 8c/	]]	8a/	-bry	.	.
!!LO:LB:g=original
=19	=19	=19	=19	=19	=19	=19
2E 2EE/	8r	.	8bn\	że	.	.
.	8g#XL 8e 8dn/	.	16cc\LL	mnie	.	.
.	.	.	16dd\JJ	.	.	.
.	8g# 8e 8d/	.	8cc\	scho-	.	.
.	8g#J 8e 8d/	.	8b\	-wał	.	.
2A 2AA\	8r	.	4b\	w_gro-	.	.
.	8aL 8e 8c/	.	.	.	.	.
.	8a 8e 8c/	.	8a/	-bie	.	.
.	8aJ 8e 8c/	.	8r	.	.	.
=20	=20	=20	=20	=20	=20	=20
2G 2GG/	8r	.	4b-X\	bo	.	.
.	8b-L 8e 8c#X/	.	.	.	.	.
.	8b- 8e 8c#/	.	8b-\	by-	.	.
.	8b-J 8e 8c#/	.	8b-\	-łem	.	.
2F 2FF/	8r	.	4.b-\	to-	.	.
.	8aL 8d 8A/	.	.	.	.	.
.	8a 8d 8A/	.	.	.	.	.
.	8aJ 8d 8A/	.	8a/	-bie	.	.
=21	=21	=21	=21	=21	=21	=21
4E\	8r	.	8a/	nie-	.	.
.	8g 8c#X 8A/	.	8g/	-szczę-	.	.
4AA/	8r	.	8f/	-sny	.	.
.	8g 8c# 8A/	.	8e/	i	.	.
2D\	8r	.	4g/	so-	.	.
.	8fL 8d 8A/	.	.	.	.	.
.	8f 8d 8A/	.	8f/	-bie	.	.
.	8fJ 8d 8A/	.	8r	.	.	.
!!LO:LB:g=original
=22	=22	=22	=22	=22	=22	=22
2GG#X\	8r	.	4dd\	za-	.	<
.	8fL 8d 8Bn 8F</	.	.	.	.	.
.	8f 8d 8B 8F</	.	8cc\	-wsze	.	.
.	8fJ 8d 8B 8F</	.	8dd\	i	.	.
4.AA\	4.e 4.c 4.E</	.	4.ee\	wszę-	.	[
8DD\	8f 8B 8A 8F</	.	8dd\	-dzie	.	.
=23	=23	=23	=23	=23	=23	=23
4EE\	4e 4c 4A< 4E</	.	4cc\	za-	.	.
4EE\	4d 4Bn 4G#X< 4E</	.	8.bn\	-wsze	.	>
.	.	.	16cc\	i	.	.
4AA 4AAA\	4c 4A< 4E</	.	8b\	wszę-	.	.
.	.	.	8a/	-dzie	.	]
4r	32G#</LLL	.	4r	.	.	.
.	32B-X</	.	.	.	.	.
!	!	!	!LO:TX:a:i:t=ritenuto	!	!	!
.	32c</	.	.	.	.	.
.	32e/JJJ	.	.	.	.	.
.	32g\LLL	.	.	.	.	.
.	32cc\	.	.	.	.	.
.	32ee\	.	.	.	.	.
.	32ff\JJJ	.	.	.	.	.
!!LO:PB:g=original
=24	=24	=24	=24	=24	=24	=24
!	!	!	!LO:TX:a:B:t=a tempo.	!	!	!
(8FF\L	8aaL 8ff 8cc 8a\	.	4a/	A-	.	.
8C\	8aJ 8c\	.	.	.	.	.
8F\	8.fL 8.A/	.	8.f/	-le	.	.
8C\J)	.	.	.	.	.	.
.	16dJk 16B-/	.	16d/	mów	.	.
(8FF\L	4.c 4.A/	.	4.c/	o	.	.
8C\	.	.	.	.	.	.
8F\	.	.	.	.	.	.
8C\J)	8c 8A/	.	8c/	mnie	.	.
=25	=25	=25	=25	=25	=25	=25
(8CC\L	8b-L 8d/	.	(8b-\	gdy	.	.
8C\	8b- 8d/	.	8b-\	mnie	.	.
8E\	8f#X 8A/	.	8f#X/	już	.	.
8C\J)	8gJ 8B-/	.	8g/)	nie	.	.
(8FF\L	4b- 4d/	.	4b-\	bę-	.	.
8C\	.	.	.	.	.	.
8F\	4a 4c/	.	8a/	-dzie	.	.
8C\J)	.	.	8r	.	.	.
!!LO:LB:g=original
=26	=26	=26	=26	=26	=26	=26
2F 2FF/	8r	.	4a/	żem	.	.
.	.	<	.	.	.	.
.	(8aL 8f/	.	.	.	.	.
.	8a 8e/	.	8a/	żył	.	.
.	8aJ 8d#X/)	[	8a/	na	.	.
2E 2EE/	8r	.	4.a/	zie-	.	.
.	.	>	.	.	.	.
.	8aL 8e 8c/	.	.	.	.	.
.	8a 8e 8c/	.	.	.	.	.
.	8aJ 8e 8c/	]]	8a/	-mi	.	.
=27	=27	=27	=27	=27	=27	=27
2E 2EE/	8r	.	(8bn\	dzi-	.	.
.	8g#XL 8e 8dn/	.	16cc\LL	-kim	.	.
.	.	.	16dd\JJ	.	.	.
.	8g# 8e 8d/	.	8cc\	ser-	.	.
.	8g#J 8e 8d/	.	8b\)	-ca	.	.
2A 2AA\	8r	.	4b\	sza-	.	.
.	8aL 8e 8c/	.	.	.	.	.
.	8a 8e 8c/	.	8a/	-łem,	.	.
.	8aJ 8e 8c/	.	8r	.	.	.
!!LO:LB:g=original
=28	=28	=28	=28	=28	=28	=28
!	!	!	!LO:TX:a:i:t=apassionato	!	!	!
4G 4GG/	8r	.	4cc\	bo	.	.
!LO:TX:a:i:t=animato	!	!	!	!	!	!
.	8b-L 8c/	.	.	.	.	.
4C/	8d/	.	8bn\	z_ser-	.	.
.	8b-J 8e/	.	8b-X\	-ca	.	.
4F 4FF/	8r	.	4.a/	cie-	.	.
.	8aL 8c/	.	.	.	.	.
4C/	8e/	.	.	.	.	.
.	8aJ 8f/	.	8a/	-bie	.	.
=29	=29	=29	=29	=29	=29	=29
4E 4EE/	8r	.	8a'/	choć	.	.
.	(8gL 8A/	.	8g'/	gorz-	.	.
4AA/	8Bn/	.	8f'/	-ko	.	.
.	8gJ 8c#X/)	.	8e/	ko-	.	.
2D 2DD/	8r	.	4g/	-cha-	.	.
.	(8fL 8d/	.	.	.	.	.
.	8a 8f/	.	8f/	-łem,	.	.
.	8ddJ 8a/)	.	8r	.	.	.
!!LO:LB:g=original
=30	=30	=30	=30	=30	=30	=30
2BB- 2BBB-/	8r	.	8d/L	za-	.	<
.	.	<	.	.	.	.
.	8gL 8d 8B-/	.	8g/J	.	.	.
.	8b- 8g 8d/	.	8b-\	-wsze	.	.
.	8ddJ 8b- 8g/	.	8dd\	i	.	.
2C 2CC/	8r	[	8cc\	wszę-	.	[
.	8aL 8f 8c/	.	4ff\	.	.	.
.	8cc 8a 8f/	.	.	.	.	.
.	8ffJ 8cc 8a/	.	8cc\	-dzie	.	.
=31	=31	=31	=31	=31	=31	=31
!	!LO:TX:b:i:t=rit.	!	!LO:TX:a:i:t=rit.	!	!	!
4C 4CC/	4aa 4ff 4cc 4a\	.	4cSS</	za-	.	.
.	.	.	16qqBn/LL	.	.	.
.	.	.	16qqc/JJ	.	.	.
4C 4CC/	4g 4e 4c 4B-/	>	8.a/	-wsze	.	.
.	.	.	16g/	i	.	.
8FF/L	4g 4e 4c 4B-/	.	4g/	wszę-	.	.
8C/J	.	.	.	.	.	.
4F\	4f 4c 4A/	]	8f/	-dzie.	.	.
.	.	.	8r	.	.	.
!LO:TX:b:i:t=Fine.	!	!	!	!	!	!
==	==	==	==	==	==	==
*-	*-	*-	*-	*-	*-	*-
!!!system-decoration: <vox>{(klav)}
!!!RDF**kern: > = above
!!!RDF**kern: < = below
!!!ENC: Berenika Jozajtis
!!!END: 2022-08-17
!!!ENC: Andrzej Kubiczek
!!!END: 2022-09-24
!!!YEC: Copyright 2022 Narodowy Instytut Fryderyka Chopina (https://polishscores.org)
!!!YEM: License CC-BY-4.0 (https://creativecommons.org/licenses/by/4.0)
